X: 07029
T: EDELMAN'S HORNPIPE
C: Bob McQuillen 15 Apr 89
B: Bob's Note Book 7 #29
%R: hornpipe, reel
Z: 2021 John Chambers <jc:trillian.mit.edu>
M: C
L: 1/8
K: G
dc \
| BGEG DEDC | B,G,B,D GBde | dBGB dedB | c2A2 A2dc |\
| BGEG DEDC | B,G,B,D GBde | dBGE DFAc | B2G2 G2 :|
|: dc \
| BGBd g2gb | agfa g2dc | BGBd egdB | c2A2 A2dc |\
| BGBd g2de | gbaf gedc | BGBd cedc | B2G2 G2 :|
%%begintext align
%% Larry Edelman of
%% Baltimore, MD., has been awfully nice to us for many years.
%% He's a superb caller and musician, and New England
%% Tradition always enjoyed playing for him. I'm sure you'll
%% enjoy his new tape of original tunes called "Timepieces."
%% Hope to play for you again soon, Larry - perhaps this tune!
%%endtext

%%sep 1 1 500

%%sep 1 1 500

